X:500
T:New Mown Meadow, The
R:reel
H:Also played in Edor (#470), and rarely in Ddor (#739)
D:Noel Hill agus Tony McMahon: \'I gCnoc na Gra\'i
Z:id:hn-reel-500
M:C|
K:Ador
eAAG A2 (3Bcd|egfd edBd|eA~A2 BGBd|d2ed BABd|
eAAG A2 (3Bcd|egfd edBd|g2ge ~f3e|1 dfed BABd:|2 dfed Bdfg||
|:a2fa bafa|~a2fd edBd|a2fa bafe|dfed BdA2|
a2fa bafa|~a2fd edBd|g2ge ~f3e|1 dfed Bdfg:|2 dfed BABd||
